icons/extend-trim-24.svg

<svg xmlns="http://www.w3.org/2000/svg" viewBox="0 0 24 24"><path d="M22 15h1v1h-1z"/><path fill="none" d="M0 0h24v24H0z"/><path d="M12 18h1v6h-1zm1-18h-1v13h1zm1 7h1V6h-1zm2 9h1v-1h-1zm2 0h1v-1h-1zm2 0h1v-1h-1zm-9-2v1H1v1h10v1h3v-3zm2 2h-1v-1h1zm6-10V5h-3v3h3V7h4V6zm-1 1h-1V6h1z"/></svg>

<svg id="icons" xmlns="http://www.w3.org/2000/svg" viewBox="0 0 24 24"><defs><style>.cls-1{fill:none;}</style></defs><rect x="22" y="15" width="1" height="1"/><rect class="cls-1" width="24" height="24"/><path d="M12,18h1v6H12ZM13,0H12V13h1Zm1,7h1V6H14Zm2,9h1V15H16Zm2,0h1V15H18Zm2,0h1V15H20Zm-9-2v1H1v1H11v1h3V14Zm2,2H12V15h1ZM19,6V5H16V8h3V7h4V6ZM18,7H17V6h1Z"/></svg>
